src/static/logos/weave.svg

<svg width="256" height="261" xmlns="http://www.w3.org/2000/svg" preserveAspectRatio="xMidYMid"><path d="M64.653 244.896c-10.596-5.665-20.27-12.791-28.859-21.048v-37.887l38.05-34.36v34.273L226.665 47.851c8.356 10.224 15.112 21.773 20.071 34.241L64.653 244.896" fill="#FF4B19"/><path d="M144.814 210.882l109.836-98.518c.795 5.817 1.35 11.711 1.35 17.747 0 13.002-1.963 25.536-5.513 37.384L147.326 258.31c-6.989 1.161-14.118 1.913-21.437 1.913-6.516 0-12.867-.635-19.125-1.56V1.56C113.022.635 119.373 0 125.889 0c6.445 0 12.73.624 18.925 1.529v209.353" fill="#00D2FF"/><path d="M106.764 116.824l99.078-89.214c-10.484-8.191-22.25-14.76-34.956-19.452L0 162.475a129.225 129.225 0 0015.6 36.436l91.164-82.087" fill="#556991"/><path d="M35.794 180.727v9.177l38.05-34.361V10.899c-14.196 6.207-27.036 14.888-38.05 25.475v144.353" fill="#FF4B19"/></svg>

<?xml version="1.0" encoding="UTF-8" standalone="no"?>
<svg width="256px" height="261px" viewBox="0 0 256 261" version="1.1" xmlns="http://www.w3.org/2000/svg" xmlns:xlink="http://www.w3.org/1999/xlink" preserveAspectRatio="xMidYMid">
	<g>
		<path d="M64.653,244.896 C54.057,239.231 44.383,232.105 35.794,223.848 L35.794,185.961 L73.844,151.601 L73.844,185.874 L226.665,47.851 C235.021,58.075 241.777,69.624 246.736,82.092 L64.653,244.896" fill="#FF4B19"></path>
		<path d="M144.814,210.882 L254.65,112.364 C255.445,118.181 256,124.075 256,130.111 C256,143.113 254.037,155.647 250.487,167.495 L147.326,258.31 C140.337,259.471 133.208,260.223 125.889,260.223 C119.373,260.223 113.022,259.588 106.764,258.663 L106.764,1.56 C113.022,0.635 119.373,0 125.889,0 C132.334,0 138.619,0.624 144.814,1.529 L144.814,210.882" fill="#00D2FF"></path>
		<path d="M106.764,116.824 L205.842,27.61 C195.358,19.419 183.592,12.85 170.886,8.158 L0,162.475 C3.349,175.531 8.639,187.775 15.6,198.911 L106.764,116.824" fill="#556991"></path>
		<path d="M35.794,180.727 L35.794,189.904 L73.844,155.543 L73.844,10.899 C59.648,17.106 46.808,25.787 35.794,36.374 L35.794,180.727" fill="#FF4B19"></path>
	</g>
</svg>
